X: 34231
T: Reel Ti-Douard
R: reel
M: 4/4
K: Gmajor
[M:6/4] B2|D2B,D GABG AAGB|[M:4/4] d2de dBGB|AGFG AcBA|
~G3A GDB,D|GABG AAGB|d2de dBGB|AGFA G2:|
|:zB|d3d- dBGB|~e3e- efge|d^cde dBGB|[M:6/4] AGFG A3B BAGB|
[M:4/4] d3d- dBGB|~e3e- efge|d^cde dBGB|AGFA G2:|

